X: 12
T: Lakes Of Sligo, The
Z: Sean Perry
S: https://thesession.org/tunes/393#setting50934
R: polka
M: 2/4
L: 1/8
K: Dmaj
|:FA AB/c/|de dc|BA B/c/d|e^d ef|
FA AB/c/|de f>e|dB Af|1 ef/e/ d2:|2 ef/e/ d>e||
|:fa d>e|fa ag/f/|gb e>f|gb ba/g/|
fg/f/ ef/e/|de f>e|dB Af|1 ef/e/ d>e:|2 ef/e/ d>A||

